clock-time-two-outline.svg

<svg fill="currentColor" viewBox="0 0 24 24"><path d="M12 20c4.42 0 8-3.58 8-8s-3.58-8-8-8-8 3.58-8 8 3.58 8 8 8m0-18c5.5 0 10 4.5 10 10s-4.5 10-10 10C6.47 22 2 17.5 2 12S6.5 2 12 2m.5 11H11V7h1.5v4.26l3.7-2.13.75 1.3z"/></svg>

<svg  viewBox="0 0 24 24" fill="currentColor"><path  d="M12 20C16.42 20 20 16.42 20 12S16.42 4 12 4 4 7.58 4 12 7.58 20 12 20M12 2C17.5 2 22 6.5 22 12S17.5 22 12 22C6.47 22 2 17.5 2 12C2 6.5 6.5 2 12 2M12.5 13V13H11V7H12.5V11.26L16.2 9.13L16.95 10.43L12.5 13Z"/></svg>
